X:1
T:Ohio state fight song
T:Ohio state fight song 
T:TUBA ARRANGEMENT
T:Caleb Mullins
C:Caleb Mullins
L:1/8
Q:1/4=160
M:2/4
K:F
V:1 bass nm="Tuba" snm="Tba."
V:1
 _E,,2 D,,E,, | _G,,2 F,,_E,, | G,, _G,,2 =G,, | B,,2 C,2 | G,,4 | F,,4 | _E,,4- | E,, z B,,,2 | %8
 G,,3 _G,, | G,,2 _E,,2 | F,,3 E,, | F,,2 D,,2 | _E,,3 F,, | G,,2 _E,,2 | B,,,4- | B,,,2 B,,,2 | %16
 G,,3 _G,, | G,,2 _E,,2 | G,,3 _G,, | _A,,2 _E,,2 | F,,3 E,, | F,,2 G,,2 | A,,2 G,,2 | _E,,2 C,,2 | %24
 F,,4- | F,,2 B,,,2 | _A,,3 G,, | _A,,2 B,,2 | (_A,,2 G,,2-) | G,,2 _E,,2 | C,,2 D,,2 | %31
 _E,,2 F,,2 | G,,4- | G,,2 G,,2 | A,,3 _A,, | A,,2 F,,2 | G,,2 D,,2 | F,,2 D,,_E,, | F,,2 C,,2 | %39
 G,,2 _G,,2 | F,,B,,/B,,/ B,,B,, | B,,B,, A,,_A,, |: G,,4 | _G,,2 =G,,2 | _E,,C,, B,,,2- | B,,,4 | %46
 _E,,2 E,,>E,, | F,, _E,,2 F,, | _A,,4- | A,,4 | _A,,4 | G,,2 _A,,2 | F,,D,, B,,,2- | %53
 B,,,D,, C,,_C,, | B,,,2 F,,2 | G,, z B,,2 | B,,2 B,,2 | G,,4 | _G,,2 =G,,2 | _E,,C,, B,,,2- | %60
 B,,,2 B,,,2 | _E,,2 G,,2 | F,,2 _E,,2 | _A,,4- | A,, z C,,D,, | _E,, D,,2 E,, | _G,,2 F,,_E,, | %67
 G,, _G,,2 =G,, | B,,2 C,2 | G,,4 | F,,4 | _E,,B,,/B,,/ B,,B,, | B,,B,, A,,_A,, :| _E,,4- | %74
 E,, z2 z |] %75

